X: 117204
Q: "Reel."
M: C
L: 1/8
K: D
|: B |\
z |\
vddfd adfd | ddfd eBBe |
ddfd adfd | BdAd FDDf |\
ddfd adfd | ddfd eBBg |\
fdec dBAB | dfeg fd d |]


